!!!COM: Fanny (Mendelssohn) Hensel
!!!CNT: Deutsch
!!!TXO: Deutsch
!!!OTL: "Kommen und Scheiden"
!!!LYR: Lenau, Nikolaus
!!!OPR: 
!!!OPS: Op. 
!!!ONM: No. 
!!!ENC: Emily Thomas
!!!YOR: Hensel: 16 Songs Fanny Mendelssohn Hensel
!!!YOR: Alfred, 1995
!!!ODT: 1846/
!!NB: Vocal melody and text encoded.
**kern	**silbe
=1	=1
*clefG2	*
*k[f#c#g#]	*
*M6/8	*
*MM[Allegretto]	*
2.r	.
=2	=2
2.r	.
=3	=3
2.r	.
=4	=4
4r	.
{8e	{So
4a	oft
8cc#	sie
=5	=5
[4.ee	kam,
4ee]	|
8cc#	er-
=6	=6
4b	-schein
8a	mir
4b	die
8dd	Ge-
=7	=7
4.cc#}	-stalt}
4r	.
{8cc#	{so
=8	=8
4.ee	lieb-
4cc#}	-lich,}
{8b	{so
=9	=9
4b	lieb-
8a	-lich,
4g#	wie
8a	das
=10	=10
4ff#	er-
8dd#	-ste
8b	Gru2n-
8cc#	|
8a	im
=11	=11
4.a	Wald.
4g#}	|}
8r	.
=12	=12
4r	.
{8ff#	{So
4ee	oft
8dd	sie
=13	=13
[4.cc#	kam,
4cc#]}	|}
{8b	{er-
=14	=14
8b	-schein
8a	|
8g#	mir
4a	die
8b	Ge-
=15	=15
4.a	-stalt
4g#}	|}
{8g#	{so
=16	=16
4.ff#	lieb-
4ee}	-lich,}
{8dd	{so
=17	=17
4dd	lieb-
8cc#	-lich,
8b	wie
8ee	|
8cc#	das
=18	=18
8b	er-
8a	|
8g#	-ste
4a	Gru2n
8b	im
=19	=19
4.g#}	Wald.}
4r	.
8r	.
=20	=20
2.r	.
=21	=21
2.r	.
=22	=22
4r	.
{8b	{Und
4b	was
8cc#	sie
=23	=23
[4.dd	sprach,
4dd]	|
8f#	drang
=24	=24
4b	mir
8dd	zum
4ff#	her-
8cc#	-zen
=25	=25
4.ee	ein
4dd}	|}
8r	.
=26	=26
{4.b	{su2ss,
4a#	wie
8b	des
=27	=27
4.dd	Fru2h-
4a#	|
8b	-lings
=28	=28
8ff#	er-
8ee	|
8dd	-stes
8eeq	Lied
8dd	|
8cc#	|
8b#	im
=29	=29
4.b#	Hain,
4.cc#}	|}
=30	=30
{4.cc#	{su2ss,
4cc#	wie
8cc#	des
=31	=31
4ee	Fru2h-
8dd	-lings
8cc#	er-
8dd	|
8b	-stes
=32	=32
[4.ee	Lied
4ee]	|
8g#	im
=33	=33
4.a}	Hain.}
4r	.
8r	.
=34	=34
*k[]	*
{4.e	{Und
16gq	als
4f	|
8e	Leb-
=35	=35
[4.e	-wohl
4e]	|
8e	sie
=36	=36
4cc	wink-
8cc	-te
4b	mit
8a	der
=37	=37
4.a	Hand,
4g#}	|}
8r	.
=38	=38
{4.a	{war's,
16ccq	ob
4b-	|
8a	der
=39	=39
[4.ff	letz-
4ff]	|
8dd	-te
=40	=40
4b	ju-
8b	-gend-
4cc	-traum
8a	mir
=41	=41
4.a	schwand,
4.g#}	|}
=42	=42
{4.ee	{und
4dd	als
8cc	Leb-
=43	=43
[4.b-	-wohl
4b-]	|
8b-	sie
=44	=44
4dd	wink-
8dd	-te
4cc	mit
8g	der
=45	=45
4.b-	Hand,
4.a}	|}
=46	=46
{4a	{war's,
8g#	|
4a	ob
8b	der
=47	=47
4cc	letz-
8b	-te
8dd	Ju-
8cc	|
8a	-gend-
=48	=48
[4.ee	-traum
4ee]	|
8g#	mir
=49	=49
4.a}	schwand,}
4r	.
8r	.
=50	=50
*k[f#c#g#]	*
4r	.
{8e	{als
4a	ob
8cc#	der
=51	=51
[4.ee	letz-
4ee]	|
8cc#	-te
=52	=52
4b	Ju-
8a	-gend-
4b	-traum
8dd	mir
=53	=53
2.dd	schwand.
=54	=54
4.cc#}	|}
4r	.
8r	.
==	==
*-	*-
